X:1
T:Selafo, LM
T:Selafo, LM
T:M. Colquhoun, 1900
T:Public Domain Courtesy of the Cyber Hymnal™
C:M. Colquhoun, 1900
Z:Public Domain
Z:Courtesy of the Cyber Hymnal™
%%score ( 1 2 ) ( 3 4 )
L:1/8
Q:1/2=92
M:4/2
K:Ab
V:1 treble 
V:2 treble 
V:3 bass 
V:4 bass 
V:1
 [CE]4 | [Ec]6 [Ec]2 [EB]2 [EA]2 [EG]3 [EA] | [EB]12 [GB]4 | [Bd]6 [Ac]2 [Fc]2 [FB]2 [FA]3 [FB] | %4
 [=Ec]12 [C_E]4 | [_Ge]6 [Gd]2 [Gc]2 [GA]2 [GB]3 [Gc] | [Fd]12 [Bd]4 | %7
 [Ac]6 [FB]2 [EA]2 [EG]2 [Gc]3 [GB] | A12 [Ac]4 | [Ac]6 [FB]2 [FB]2 [FA]2 [FA]3 [FG] | %10
 [EG]12 [EG]4 | [Fd]6 [DF]2 [EG]2 [EA]2 [EB]2 [Ec]2 | [CE]8- [CE]2 [DF]2 [EG]2 [FA]2 | %13
 [Ed]8- [Ed]2 [EB]2 [Ec]2 [EB]2 | [Ee]12 [Fd]4 | [Ed]6 [Ec]2 [FB]2 F2 [EG]3 [EA] | [EA]12 |] %17
V:2
 x4 | x16 | x16 | x16 | x16 | x16 | x16 | x16 | A12 x4 | x16 | x16 | x16 | x16 | x16 | x16 | %15
 x10 F2 x4 | x12 |] %17
V:3
 [A,,A,]4 | [A,,A,]6 [A,,A,]2 [B,,G,]2 [C,A,]2 [D,B,]3 [C,A,] | [E,G,]12 [E,E]4 | %3
 [B,,F]6 [C,E]2 [D,D]2 [D,D]2 [D,D]3 [D,F,] | [C,G,]12 [A,,A,]4 | %5
 [A,C]6 [A,B,]2 A,2 [A,C]2 [A,D]3 [A,E] | [D,D]12 [B,,F]4 | %7
 [C,E]6 [D,D]2 [E,C]2 [E,B,]2 [E,E]3 [E,D] | [A,C]12 [A,,E]4 | %9
 [C,E]6 [D,D]2 [D,D]2 [D,D]2 [=D,_C]3 [D,C] | [E,B,]12 [E,B,]4 | %11
 [D,D]6 [D,A,]2 [D,B,]2 [C,A,]2 [D,G,]2 [C,A,]2 | [A,,A,]8- [A,,A,]2 [D,A,]2 [D,A,]2 [D,A,]2 | %13
 [B,,G,]8 [B,,G,]2 [E,G,]2 [D,G,]2 [D,G,]2 | [C,A,]12 [D,A,]4 | %15
 ([E,G,]2 [F,A,]2) ([G,B,]2 [A,C]2) [D,D]2 [D,B,]2 [E,B,]3 [E,D] | [A,,C]12 |] %17
V:4
 x4 | x16 | x16 | x16 | x16 | x8 A,2 x6 | x16 | x16 | x16 | x16 | x16 | x16 | x16 | x16 | x16 | %15
 x16 | x12 |] %17

